;FLAVOR:Marlin
;TIME:5368
;Filament used: 2.39016m
;Layer height: 0.16
;MINX:56.117
;MINY:67.392
;MINZ:0.2
;MAXX:178.883
;MAXY:167.608
;MAXZ:2.08
;Generated with Cura_SteamEngine 4.6.1
M140 S60
M105
M190 S60
M104 S202
M105
M109 S202
M82 ;absolute extrusion mode
; Ender 3 Custom Start G-code
G92 E0 ; Reset Extruder
G28 ; Home all axes
G1 Z2.0 F3000 ; Move Z Axis up little to prevent scratching of Heat Bed
G1 X0.1 Y20 Z0.3 F5000.0 ; Move to start position
G1 X0.1 Y200.0 Z0.3 F1500.0 E15 ; Draw the first line
G1 X0.4 Y200.0 Z0.3 F5000.0 ; Move to side a little
G1 X0.4 Y20 Z0.3 F1500.0 E30 ; Draw the second line
G92 E0 ; Reset Extruder
G1 Z2.0 F3000 ; Move Z Axis up little to prevent scratching of Heat Bed
G1 X5 Y20 Z0.3 F5000.0 ; Move over to prevent blob squish
G92 E0
G92 E0
G1 F1500 E-6.5
;LAYER_COUNT:12
;LAYER:0
M107
G0 F6000 X136.755 Y68.202 Z0.2
;TYPE:SKIRT
G1 F1500 E0
G1 F1200 X137.649 Y68.254 E0.02978
G1 X138.257 Y68.316 E0.05011
G1 X138.602 Y68.357 E0.06167
G1 X138.917 Y68.4 E0.07224
G1 X139.352 Y68.469 E0.08689
G1 X139.88 Y68.568 E0.10476
G1 X141.895 Y68.986 E0.1732
G1 X144.417 Y69.434 E0.2584
G1 X146.97 Y69.815 E0.34425
G1 X148.387 Y69.99 E0.39174
G1 X148.945 Y70.075 E0.41051
G1 X149.167 Y70.115 E0.41802
G1 X150.355 Y70.403 E0.45867
G1 X150.612 Y70.482 E0.46762
G1 X151.463 Y70.786 E0.49767
G1 X152.138 Y71.089 E0.52228
G1 X152.326 Y71.182 E0.52926
G1 X153.248 Y71.7 E0.56443
G1 X153.484 Y71.849 E0.57371
G1 X154.226 Y72.365 E0.60377
G1 X154.614 Y72.676 E0.62031
G1 X154.818 Y72.848 E0.62919
G1 X155.22 Y73.206 E0.64709
G1 X155.68 Y73.644 E0.66822
G1 X172.764 Y90.729 E1.47182
G1 X173.232 Y91.212 E1.49419
G1 X173.774 Y91.818 E1.52123
G1 X173.977 Y92.064 E1.53184
G1 X174.521 Y92.785 E1.56188
G1 X175.076 Y93.693 E1.59727
G1 X175.217 Y93.953 E1.60711
G1 X175.612 Y94.766 E1.63717
G1 X176.002 Y95.823 E1.67465
G1 X176.095 Y96.126 E1.68519
G1 X176.322 Y97 E1.71522
G1 X176.477 Y97.951 E1.74727
G1 X176.601 Y99.025 E1.78323
G1 X176.934 Y101.649 E1.8712
G1 X177.316 Y104.11 E1.95404
G1 X177.582 Y105.512 E2.0015
G1 X177.848 Y107.055 E2.05358
G1 X177.889 Y107.323 E2.06259
G1 X177.945 Y107.756 E2.07712
G1 X178.005 Y108.304 E2.09545
G1 X178.064 Y109.235 E2.12648
G1 X178.083 Y110.385 E2.16473
G1 X178.082 Y153.744 E3.60686
G1 X178.075 Y154.261 E3.62406
G1 X178.045 Y154.92 E3.646
G1 X177.994 Y155.571 E3.66772
G1 X177.884 Y156.467 E3.69774
G1 X177.582 Y157.749 E3.74155
G1 X177.457 Y158.159 E3.7558
G1 X177.155 Y159.01 E3.78584
G1 X176.72 Y159.947 E3.8202
G1 X176.532 Y160.303 E3.83359
G1 X176.075 Y161.082 E3.86363
G1 X175.681 Y161.648 E3.88656
G1 X175.524 Y161.858 E3.89528
G1 X175.176 Y162.298 E3.91394
G1 X175.032 Y162.47 E3.9214
G1 X174.422 Y163.136 E3.95144
G1 X173.69 Y163.8 E3.98431
G1 X173.341 Y164.087 E3.99934
G1 X172.618 Y164.629 E4.0294
G1 X171.69 Y165.194 E4.06553
G1 X171.301 Y165.403 E4.08022
G1 X170.487 Y165.795 E4.11027
G1 X169.713 Y166.09 E4.13782
G1 X169.519 Y166.155 E4.14462
G1 X169.065 Y166.295 E4.16043
G1 X168.822 Y166.364 E4.16883
G1 X167.943 Y166.572 E4.19887
G1 X167.09 Y166.697 E4.22754
G1 X166.657 Y166.742 E4.24202
G1 X165.895 Y166.793 E4.26742
G1 X165.254 Y166.807 E4.28875
G1 X70.119 Y166.808 E7.45295
G1 X69.973 Y166.807 E7.45781
G1 X69.275 Y166.797 E7.48103
G1 X68.419 Y166.749 E7.50954
G1 X67.963 Y166.704 E7.52478
G1 X67.069 Y166.575 E7.55482
G1 X65.997 Y166.312 E7.59154
G1 X65.563 Y166.18 E7.60662
G1 X64.711 Y165.879 E7.63668
G1 X63.711 Y165.41 E7.67341
G1 X63.338 Y165.21 E7.68749
G1 X62.562 Y164.749 E7.71751
G1 X61.899 Y164.275 E7.74462
G1 X61.706 Y164.125 E7.75275
G1 X61.181 Y163.691 E7.77541
G1 X60.52 Y163.075 E7.80546
G1 X59.919 Y162.407 E7.83534
G1 X59.636 Y162.063 E7.85016
G1 X59.094 Y161.341 E7.88019
G1 X58.636 Y160.607 E7.90896
G1 X58.533 Y160.425 E7.91592
G1 X58.322 Y160.032 E7.93075
G1 X58.215 Y159.822 E7.93859
G1 X57.841 Y159 E7.96863
G1 X57.556 Y158.198 E7.99694
G1 X57.436 Y157.809 E8.01048
G1 X57.208 Y156.935 E8.04052
G1 X57.043 Y155.903 E8.07528
G1 X56.991 Y155.424 E8.09131
G1 X56.932 Y154.485 E8.1226
G1 X56.917 Y153.444 E8.15723
G1 X56.917 Y81.394 E10.55362
G1 X56.925 Y80.739 E10.57541
G1 X56.955 Y80.082 E10.59728
G1 X57.006 Y79.43 E10.61903
G1 X57.116 Y78.533 E10.64909
G1 X57.424 Y77.234 E10.69349
G1 X57.551 Y76.82 E10.7079
G1 X57.853 Y75.969 E10.73793
G1 X58.298 Y75.019 E10.77282
G1 X58.496 Y74.647 E10.78684
G1 X58.955 Y73.869 E10.81688
G1 X59.558 Y73.038 E10.85103
G1 X59.853 Y72.672 E10.86667
G1 X60.451 Y71.995 E10.89671
G1 X61.206 Y71.286 E10.93116
G1 X61.768 Y70.824 E10.95536
G1 X62.497 Y70.292 E10.98537
G1 X63.34 Y69.788 E11.01804
G1 X63.722 Y69.584 E11.03244
G1 X64.537 Y69.194 E11.06249
G1 X65.518 Y68.835 E11.09724
G1 X65.952 Y68.701 E11.11235
G1 X66.826 Y68.473 E11.14239
G1 X67.769 Y68.317 E11.17418
G1 X67.99 Y68.291 E11.18158
G1 X68.948 Y68.224 E11.21352
G1 X70.448 Y68.192 E11.26342
G1 X135.961 Y68.192 E13.44239
G1 X136.102 Y68.193 E13.44708
G1 X136.755 Y68.202 E13.4688
G0 F6000 X136.76 Y67.802
G1 F1200 X137.689 Y67.856 E13.49975
G1 X138.297 Y67.918 E13.52008
G1 X138.656 Y67.96 E13.5321
G1 X138.971 Y68.003 E13.54268
G1 X139.423 Y68.075 E13.5579
G1 X139.962 Y68.176 E13.57614
G1 X142.015 Y68.602 E13.64588
G1 X144.475 Y69.039 E13.72898
G1 X146.999 Y69.416 E13.81386
G1 X148.436 Y69.593 E13.86201
G1 X149.016 Y69.681 E13.88153
G1 X149.238 Y69.721 E13.88903
G1 X150.473 Y70.021 E13.9313
G1 X150.73 Y70.1 E13.94024
G1 X151.597 Y70.408 E13.97084
G1 X152.315 Y70.731 E13.99703
G1 X152.503 Y70.824 E14.00401
G1 X153.462 Y71.362 E14.04058
G1 X153.698 Y71.511 E14.04986
G1 X154.454 Y72.036 E14.08048
G1 X154.872 Y72.37 E14.09827
G1 X155.076 Y72.542 E14.10715
G1 X155.494 Y72.914 E14.12576
G1 X155.719 Y73.125 E14.13602
G1 X155.963 Y73.361 E14.14731
G1 X173.052 Y90.451 E14.95114
G1 X173.52 Y90.934 E14.97351
G1 X174.083 Y91.563 E15.00159
G1 X174.286 Y91.809 E15.0122
G1 X174.84 Y92.544 E15.04281
G1 X175.428 Y93.503 E15.08023
G1 X175.569 Y93.763 E15.09006
G1 X175.972 Y94.59 E15.12066
G1 X176.384 Y95.706 E15.16023
G1 X176.477 Y96.009 E15.17077
G1 X176.709 Y96.9 E15.20139
G1 X176.874 Y97.905 E15.23527
G1 X176.991 Y98.921 E15.26928
G1 X177.332 Y101.609 E15.3594
G1 X177.707 Y104.025 E15.44072
G1 X177.976 Y105.443 E15.48873
G1 X178.243 Y106.995 E15.5411
G1 X178.284 Y107.263 E15.55012
G1 X178.343 Y107.712 E15.56518
G1 X178.403 Y108.26 E15.58352
G1 X178.464 Y109.228 E15.61578
G1 X178.483 Y110.385 E15.65427
G1 X178.482 Y153.75 E17.09659
G1 X178.475 Y154.267 E17.11379
G1 X178.444 Y154.951 E17.13656
G1 X178.393 Y155.602 E17.15828
G1 X178.281 Y156.516 E17.18891
G1 X178.09 Y157.416 E17.21951
G1 X177.964 Y157.865 E17.23502
G1 X177.839 Y158.275 E17.24927
G1 X177.533 Y159.143 E17.27989
G1 X177.073 Y160.134 E17.31622
G1 X176.885 Y160.49 E17.32961
G1 X176.42 Y161.285 E17.36025
G1 X176.002 Y161.887 E17.38462
G1 X175.845 Y162.097 E17.39334
G1 X175.483 Y162.555 E17.41276
G1 X175.339 Y162.727 E17.42022
G1 X174.718 Y163.406 E17.45083
G1 X173.944 Y164.109 E17.4856
G1 X173.595 Y164.396 E17.50063
G1 X172.859 Y164.95 E17.53127
G1 X171.879 Y165.547 E17.56944
G1 X171.49 Y165.756 E17.58413
G1 X170.661 Y166.156 E17.61474
G1 X169.841 Y166.469 E17.64393
G1 X169.647 Y166.534 E17.65074
G1 X169.174 Y166.68 E17.6672
G1 X168.931 Y166.749 E17.6756
G1 X168.036 Y166.962 E17.7062
G1 X167.132 Y167.095 E17.73659
G1 X166.699 Y167.14 E17.75107
G1 X165.907 Y167.193 E17.77747
G1 X165.254 Y167.207 E17.7992
G1 X70.119 Y167.208 E20.9634
G1 X69.967 Y167.207 E20.96846
G1 X69.269 Y167.197 E20.99167
G1 X68.38 Y167.147 E21.02129
G1 X67.924 Y167.102 E21.03653
G1 X67.013 Y166.972 E21.06714
G1 X65.881 Y166.694 E21.10591
G1 X65.447 Y166.562 E21.12099
G1 X64.578 Y166.256 E21.15164
G1 X63.522 Y165.763 E21.1904
G1 X63.149 Y165.563 E21.20448
G1 X62.357 Y165.093 E21.23511
G1 X61.653 Y164.59 E21.26388
G1 X61.46 Y164.44 E21.27201
G1 X61.09 Y164.139 E21.28788
G1 X60.921 Y163.995 E21.29526
G1 X60.247 Y163.368 E21.32588
G1 X59.61 Y162.661 E21.35753
G1 X59.327 Y162.317 E21.37235
G1 X58.774 Y161.582 E21.40294
G1 X58.288 Y160.804 E21.43345
G1 X58.185 Y160.622 E21.44041
G1 X57.965 Y160.213 E21.45585
G1 X57.858 Y160.003 E21.46369
G1 X57.476 Y159.166 E21.49429
G1 X57.174 Y158.316 E21.5243
G1 X57.054 Y157.927 E21.53783
G1 X56.821 Y157.036 E21.56847
G1 X56.645 Y155.946 E21.60519
G1 X56.593 Y155.467 E21.62121
G1 X56.532 Y154.492 E21.65371
G1 X56.517 Y153.444 E21.68857
G1 X56.517 Y81.394 E24.08496
G1 X56.525 Y80.733 E24.10695
G1 X56.556 Y80.05 E24.12969
G1 X56.607 Y79.398 E24.15144
G1 X56.719 Y78.485 E24.18203
G1 X56.909 Y77.584 E24.21266
G1 X57.041 Y77.116 E24.22883
G1 X57.168 Y76.702 E24.24323
G1 X57.476 Y75.835 E24.27384
G1 X57.945 Y74.831 E24.31069
G1 X58.143 Y74.459 E24.32471
G1 X58.61 Y73.665 E24.35535
G1 X59.247 Y72.787 E24.39143
G1 X59.542 Y72.421 E24.40706
G1 X60.15 Y71.73 E24.43767
G1 X60.948 Y70.981 E24.47408
G1 X61.518 Y70.512 E24.49863
G1 X62.261 Y69.968 E24.52925
G1 X63.152 Y69.435 E24.56379
G1 X63.534 Y69.231 E24.57819
G1 X64.364 Y68.833 E24.60881
G1 X65.4 Y68.453 E24.64551
G1 X65.834 Y68.319 E24.66062
G1 X66.724 Y68.086 E24.69121
G1 X67.722 Y67.92 E24.72486
G1 X67.943 Y67.894 E24.73227
G1 X68.939 Y67.824 E24.76547
G1 X70.448 Y67.792 E24.81568
G1 X135.961 Y67.792 E26.99465
G1 X136.107 Y67.793 E26.9995
G1 X136.76 Y67.802 E27.02122
G0 F6000 X136.766 Y67.402
G1 F1200 X137.73 Y67.458 E27.05334
G1 X138.338 Y67.52 E27.07367
G1 X138.71 Y67.564 E27.08613
G1 X139.025 Y67.607 E27.0967
G1 X139.494 Y67.682 E27.1125
G1 X140.043 Y67.784 E27.13107
G1 X142.095 Y68.21 E27.20077
G1 X144.537 Y68.644 E27.28327
G1 X147.062 Y69.02 E27.36818
G1 X148.485 Y69.196 E27.41587
G1 X149.087 Y69.287 E27.43612
G1 X149.309 Y69.327 E27.44362
G1 X150.59 Y69.639 E27.48747
G1 X150.847 Y69.718 E27.49641
G1 X151.731 Y70.031 E27.5276
G1 X152.492 Y70.372 E27.55534
G1 X152.68 Y70.465 E27.56232
G1 X153.675 Y71.024 E27.60028
G1 X153.911 Y71.173 E27.60956
G1 X154.682 Y71.707 E27.64075
G1 X155.13 Y72.064 E27.6598
G1 X155.334 Y72.236 E27.66868
G1 X155.768 Y72.622 E27.688
G1 X155.993 Y72.833 E27.69826
G1 X156.246 Y73.079 E27.70999
G1 X173.339 Y90.172 E28.514
G1 X173.807 Y90.655 E28.53636
G1 X174.391 Y91.309 E28.56553
G1 X174.594 Y91.555 E28.57614
G1 X175.16 Y92.303 E28.60733
G1 X175.78 Y93.312 E28.64672
G1 X175.921 Y93.572 E28.65656
G1 X176.332 Y94.415 E28.68775
G1 X176.767 Y95.588 E28.72936
G1 X176.86 Y95.891 E28.73991
G1 X177.097 Y96.799 E28.77112
G1 X177.272 Y97.859 E28.80685
G1 X177.396 Y98.932 E28.84278
G1 X177.725 Y101.529 E28.92984
G1 X178.105 Y103.977 E29.01224
G1 X178.37 Y105.375 E29.05956
G1 X178.679 Y107.203 E29.12123
G1 X178.741 Y107.669 E29.13686
G1 X178.801 Y108.217 E29.1552
G1 X178.864 Y109.221 E29.18866
G1 X178.883 Y110.385 E29.22738
G1 X178.882 Y153.755 E30.66987
G1 X178.875 Y154.272 E30.68707
G1 X178.842 Y154.982 E30.71071
G1 X178.791 Y155.633 E30.73242
G1 X178.678 Y156.564 E30.76362
G1 X178.486 Y157.482 E30.79481
G1 X178.347 Y157.982 E30.81207
G1 X178.222 Y158.392 E30.82633
G1 X177.91 Y159.277 E30.85754
G1 X177.427 Y160.321 E30.8958
G1 X177.239 Y160.677 E30.90919
G1 X176.766 Y161.487 E30.94039
G1 X176.322 Y162.127 E30.96629
G1 X176.165 Y162.337 E30.97501
G1 X175.789 Y162.811 E30.99514
G1 X175.645 Y162.983 E31.0026
G1 X175.013 Y163.676 E31.03379
G1 X174.198 Y164.418 E31.07045
G1 X173.849 Y164.705 E31.08548
G1 X173.1 Y165.269 E31.11667
G1 X172.068 Y165.899 E31.15688
G1 X171.679 Y166.108 E31.17157
G1 X170.835 Y166.516 E31.20275
G1 X169.968 Y166.848 E31.23363
G1 X169.774 Y166.913 E31.24043
G1 X169.284 Y167.065 E31.25749
G1 X169.041 Y167.134 E31.2659
G1 X168.128 Y167.351 E31.29711
G1 X167.173 Y167.493 E31.32922
G1 X166.74 Y167.538 E31.3437
G1 X165.918 Y167.592 E31.3711
G1 X165.254 Y167.607 E31.39319
G1 X70.119 Y167.608 E34.55739
G1 X69.961 Y167.607 E34.56265
G1 X69.263 Y167.597 E34.58587
G1 X68.341 Y167.545 E34.61658
G1 X67.885 Y167.5 E34.63182
G1 X66.956 Y167.368 E34.66303
G1 X65.764 Y167.077 E34.70384
G1 X65.33 Y166.945 E34.71893
G1 X64.445 Y166.634 E34.75013
G1 X63.333 Y166.115 E34.79094
G1 X62.96 Y165.915 E34.80502
G1 X62.153 Y165.437 E34.83622
G1 X61.408 Y164.906 E34.86664
G1 X61.215 Y164.756 E34.87477
G1 X60.831 Y164.444 E34.89123
G1 X60.662 Y164.3 E34.89861
G1 X59.975 Y163.662 E34.9298
G1 X59.301 Y162.915 E34.96326
G1 X59.018 Y162.571 E34.97808
G1 X58.454 Y161.822 E35.00926
G1 X57.94 Y161.001 E35.04148
G1 X57.837 Y160.819 E35.04843
G1 X57.609 Y160.395 E35.06445
G1 X57.502 Y160.185 E35.07229
G1 X57.112 Y159.332 E35.10348
G1 X56.792 Y158.434 E35.13519
G1 X56.672 Y158.045 E35.14873
G1 X56.434 Y157.137 E35.17995
G1 X56.247 Y155.989 E35.21863
G1 X56.195 Y155.51 E35.23466
G1 X56.132 Y154.498 E35.26838
G1 X56.117 Y153.444 E35.30344
G1 X56.117 Y81.394 E37.69984
G1 X56.125 Y80.728 E37.72199
G1 X56.157 Y80.019 E37.74559
G1 X56.208 Y79.367 E37.76735
G1 X56.321 Y78.436 E37.79854
G1 X56.513 Y77.518 E37.82973
G1 X56.659 Y76.999 E37.84766
G1 X56.786 Y76.585 E37.86207
G1 X57.099 Y75.701 E37.89326
G1 X57.592 Y74.643 E37.93208
G1 X57.79 Y74.271 E37.9461
G1 X58.265 Y73.462 E37.9773
G1 X58.936 Y72.536 E38.01533
G1 X59.231 Y72.17 E38.03097
G1 X59.85 Y71.466 E38.06215
G1 X60.69 Y70.676 E38.1005
G1 X61.268 Y70.2 E38.12541
G1 X62.024 Y69.645 E38.1566
G1 X62.963 Y69.082 E38.19301
G1 X63.345 Y68.878 E38.20742
G1 X64.191 Y68.472 E38.23863
G1 X65.282 Y68.071 E38.27729
G1 X65.716 Y67.937 E38.2924
G1 X66.623 Y67.698 E38.32359
G1 X67.676 Y67.522 E38.3591
G1 X67.897 Y67.496 E38.3665
G1 X68.93 Y67.424 E38.40094
G1 X70.448 Y67.392 E38.45144
G1 X135.961 Y67.392 E40.63041
G1 X136.113 Y67.393 E40.63547
G1 X136.766 Y67.402 E40.65719
G1 F1500 E34.15719
;MESH:TB3_Kit.stl
G0 F6000 X136.645 Y77.727
G0 X136.645 Y78.711
G0 X134.976 Y79.574
G0 X134.987 Y82.565
G0 X134.893 Y83.422
G0 X134.639 Y84.144
G0 X134.221 Y84.809
G0 X133.646 Y85.385
G0 X133.023 Y85.767
G0 X132.276 Y86.026
G0 X131.604 Y86.102
G0 X68.576 Y86.292
;TYPE:WALL-INNER
G1 F1500 E40.65719
G1 F1200 X68.576 Y153.87 E42.90484
G1 X68.989 Y154.79 E42.93839
G1 X69.934 Y155.179 E42.97237
G1 X165.066 Y155.179 E46.13648
G1 X166.026 Y154.782 E46.17103
G1 X166.424 Y153.823 E46.20556
G1 X166.424 Y110.601 E47.64313
G1 X166.299 Y109.571 E47.67764
G1 X165.942 Y108.45 E47.71677
G1 X165.407 Y107.405 E47.75582
G1 X164.775 Y106.595 E47.78999
G1 X163.274 Y105.101 E47.86043
G1 X162.989 Y104.817 E47.87381
G1 X152.452 Y94.32 E48.3685
G1 X139.544 Y81.46 E48.97452
G1 X138.722 Y80.83 E49.00897
G1 X137.661 Y80.299 E49.04843
G1 X136.52 Y79.944 E49.08818
G1 X135.2 Y79.79 E49.13238
G1 X135.158 Y79.786 E49.13378
G1 X135.158 Y79.828 E49.13466
G1 X135.158 Y82.577 E49.22609
G1 X135.06 Y83.46 E49.25564
G1 X134.793 Y84.22 E49.28244
G1 X134.356 Y84.916 E49.30977
G1 X133.753 Y85.52 E49.33816
G1 X133.098 Y85.921 E49.3637
G1 X132.312 Y86.195 E49.39139
G1 X131.459 Y86.292 E49.41994
G1 X68.576 Y86.292 E51.51144
G0 F6000 X68.976 Y86.692
G1 F1200 X68.976 Y95.438 E51.80233
G1 X71.038 Y95.438 E51.87091
G1 X71.101 Y95.438 E51.87301
G1 X71.129 Y95.447 E51.87399
G1 X71.165 Y95.46 E51.87526
G1 X71.222 Y95.479 E51.87726
G1 X71.253 Y95.49 E51.87835
G1 X71.687 Y95.638 E51.8936
G1 X71.253 Y95.786 E51.90163
G1 X71.252 Y95.787 E51.90167
G1 X71.224 Y95.796 E51.90263
G1 X71.164 Y95.816 E51.90468
G1 X71.1 Y95.838 E51.90693
G1 X71.04 Y95.838 E51.90887
G1 X68.976 Y95.838 E51.97752
G1 X68.976 Y102.438 E52.19704
G1 X71.096 Y102.438 E52.26755
G1 X71.159 Y102.438 E52.26965
G1 X71.187 Y102.447 E52.27062
G1 X71.223 Y102.46 E52.2719
G1 X71.281 Y102.479 E52.27393
G1 X71.746 Y102.638 E52.29027
G1 X71.31 Y102.787 E52.3056
G1 X71.282 Y102.796 E52.30655
G1 X71.222 Y102.816 E52.3086
G1 X71.159 Y102.838 E52.31082
G1 X71.098 Y102.838 E52.3128
G1 X68.976 Y102.838 E52.38338
G1 X68.976 Y120.578 E52.97341
G1 X91.526 Y120.578 E53.72343
G1 X91.526 Y117.82 E53.81516
G1 X91.526 Y117.757 E53.81725
G1 X91.548 Y117.693 E53.81951
G1 X91.567 Y117.635 E53.82154
G1 X91.576 Y117.609 E53.82245
G1 X91.726 Y117.17 E53.83788
G1 X91.884 Y117.634 E53.85418
G1 X91.904 Y117.694 E53.85623
G1 X91.917 Y117.731 E53.85754
G1 X91.926 Y117.757 E53.85843
G1 X91.926 Y117.818 E53.86041
G1 X91.926 Y120.578 E53.95221
G1 X141.526 Y120.578 E55.60191
G1 X141.526 Y117.82 E55.69364
G1 X141.526 Y117.757 E55.69574
G1 X141.535 Y117.729 E55.69671
G1 X141.548 Y117.693 E55.69799
